X: 41329
T: Turf Lodge, The
R: jig
M: 6/8
K: Dmajor
|:a|"D"f2a "A"e2f|"Bm"dfe dBA|"G"Bdd d2e|"Bm"faa "A"e2a|
"D"f2a "A"efa|"D"fef dBA|"Bm"Bdd "A"efe|"G"dBA "A"A2:|
A|"G"Bdd d3|"A"ede "Bm"f3|"G"Bdd d2e|"D"faa "A"e2f|
"G"Bdd d3|"A"ede "Bm"f2A|"G"Bdd "A"efe|"D"dBA "A"A3|
"G"Bdd d3|"A"ede "Bm"f3|"G"Bdd d2e|"D"faa "A"e2a|
"D"f2a "A"efa|"D"fef dBA|"Bm"Bdd "A"efe|"G"dBA "A"A2||
|:f|"Bm"dBd B2A|"F#m"faa f2e|"G"Bdd d2e|"D"faa "A"e2a|
"D"fef dAd|ede "F#m"faA|"Bm"Bdd "A"efe|"G"dBA "A"A2:|
f|"Bm"B2f BfB|fBa f2e|"G"Bdd d2e|"D"faa "A"e2f|
"Bm"B2f BfB|fBa f2e|"G"Bdd "A"efe|"D"dBA "A"A2f|
"Bm"B2f BfB|fBa f2e|"G"Bdd d2e|"D"faa "A"e2a|
"D"fef dAd|ede "F#m"faA|"Bm"Bdd "A"efe|"G"dBA "A"A2||

